X: 5
T: The Piper's Despair
R: reel
M: 4/4
L: 1/8
K: Edor
E2GA BAFA|B2ce dBAF| D2AB AD2E|FABe dBAF|
EFGA BAFA|B2ce dBAF| DEFA defa|gef^d Be 3^def|
|:e2ga bgaf|e2ga bgaf|1 d2ed a2fe |^def^d e^dB^d :|2 d2ed a2fa|
gef^d Be 3^def||


Tune 336	Setting 13122

